!!!OTL: Der Tanzlustige.
!!!OTL-incipit: BIN I NET E PUESTLE
!!!ARE: Europa, Mitteleuropa, Deutschland, Schwaben
!!!SCT: Z1328
!!!YEM: Copyright 1995, estate of Helmut Schaffrath.
**kern	**text
*ICvox	*
!! Mixed meters:  3/4; 2/4
*M3/4	*
*k[b-]	*
*F:	*
=1	=1
!LO:TX:a:t=Aus Schwaben.	!
{8.f	Bin
16g	i
8a	net
8b-/	e
8cc/L	Pueſt-
8aJ	.
=2	=2
8cc	-le
8r	.
8a	auf
8f	der
8aq	.
4g;}	Welt?
=3	=3
{8.f	Spring
16g	i
8a	net
8b-/	wie
8cc/L	a
8aJ	.
=4	=4
8cc	Hirſchle
8r	.
8a	auf
8f	em
8aqq	.
4g;}	Feld?
=5	=5
*M2/4	*
{8cc	Auf
8a	em
8a	Feld
8cc	im
=6	=6
8b-/	grü-
8g	-ne
8g}	Holʒ
{8b-/	be-
=7	=7
8a	-geg-
8f	-net
8f	mir
8a	a
=8	=8
8g	Jungfer
8e	.
4c}	ſtolʒ.
=9	=9
*M3/4	*
{8.f	Got-
16g	-ta
8a	Mor-
8b-/	-ga,
8cc/L	Jung-
8aJ	.
=10	=10
8cc	-fer,
8r	.
8a	komm
8f	ſie
4g;}	g'ſchwind;
=11	=11
{8.f	will
16g	ſe
8a	mit
8b-/	mir
8cc/L	tan-
8aJ	.
=12	=12
8cc	-ʒa,
8r	.
8a	geb
8f	ſe
4g;}	d'Händ'!
=13	=13
*M2/4	*
{8cc	'S_Stüble
8a	.
8a	auf
8cc	und
=14	=14
8b-	ab
8g	ge-
8g	-ſchwind,
8r}	.
=15	=15
*M3/4	*
{8.f	ſcho-
16g	-ni
8a	Mu-
8b-/	-ſi-
8cc/L	-kan-
8aJ	.
=16	=16
8cc	-ta,
8r	.
8a	ſpie-
8f	-let
4g;}	auf!
=17	=17
{8.f	ſpie-
16g	-ler
8a	mir
8b-/	a
(8cc/L	Tanʒ-
8aJ)	.
=18	=18
8cc	-la
8r	.
8a	o-
8f	-ben
4g;}	drauf!
=19	=19
*M3/8	*
{8cc	O-
8a	-ba
8cc	drauf
=20	=20
8b-	ein-
8g	-geſchmiert,
8b-}	.
=21	=21
{8a	lu-
8f	-ſti
8a	ʒum
=22	=22
8g	Tanʒ
8e	ge-
8g}	-führt,
=23	=23
{8.c	hei-
16d	-ſa-
8e	-ſa!
=24	=24
8f	.
4r}	.
=25	=25
{8.c	hop-
16d	-ſa-
8e	-ſa!
=26	=26
8f	.
4r}	.
==	==
!!!AGN: Zech -, Schalks - Lied
!!!ONB: ESAC (Essen Associative Code) Database: ZUCCAL
!!!AMT: irregular
!!!AIN: vox
!!!EED: Helmut Schaffrath
!!!EEV: 1.0
!!!GTL: VIII. Zech- und Schalks-Lieder.
!!!URL-scan: https://www.digitale-sammlungen.de/de/view/bsb11160573?page=603
!!!ENC: Anna Maria Matuszewska
!!!EEV: 2025/02/07
*-	*-
